X:1
T: Lock the Door
C:
R:Jig
Q:180
K:Em
M:6/8
L:1/16
|:B,2|E2F2E2 B2A2G2|F2D2F2 A2G2F2|E2F2E2 B2A2G2|A2G2F2 E6|E2F2E2 B2A2G2|F2D2F2 A2G2F2|B^cd2B2 A2G2F2|E6E4:|
|:A2|B4^c2 d4e2|d4B2 A2F2D2|B4^c2 d4e2|f2d2B2 f2d2B2|B4^c2 d4e2|d2c2B2 A2F2A2|B^cd2B2 A2G2F2|E6E4:|
|:E2|E4B2 E4B2|E4B2 B2A2B2|E4B2 E4B2|A2G2F2 E6|E4B2 E4B2|E4B2 B2A2B2|d2c2B2 A2G2F2|E6E4:|
